src/assets/svg/icons/fa/nuevos/classic/duotone/explosion classic duotone.svg

<svg xmlns="http://www.w3.org/2000/svg" viewBox="0 0 576 512"><defs><style>.fa-secondary{opacity:.4}</style></defs><path class="fa-primary" d="M0 480C0 462.3 14.33 448 32 448H544C561.7 448 576 462.3 576 480C576 497.7 561.7 512 544 512H32C14.33 512 0 497.7 0 480z"/><path class="fa-secondary" d="M499.6 11.33C506.3 .6026 520.1-3.119 531.3 2.822C542.4 8.762 547.1 22.33 541.9 33.85L404.8 338.6C406.9 340.9 409 343.3 411.1 345.7L508.2 291.1C518.7 285.2 531.9 287.9 539.1 297.5C546.4 307.1 545.4 320.5 536.1 328.1L445.6 420.3C447.2 429.3 448 438.6 448 448H384C384 394.1 341 352 288 352C234.1 352 192 394.1 192 448H128C128 439.9 128.6 432 129.8 424.3L42.34 363.7C32.59 356.1 29.23 344.1 34.43 333.5C39.64 322.8 51.84 317.6 63.16 321.1L160.4 351.5C163.3 347.6 166.5 343.8 169.7 340.2L107.4 236.4C101.4 226.3 103.5 213.3 112.5 205.7C121.5 198.1 134.7 198.1 143.6 205.8L246 293.6C247.5 293.2 249 292.8 250.5 292.4L264.1 149.7C265.3 137.4 275.6 128 288 128C300.4 128 310.7 137.4 311.9 149.7L325.4 291.6L499.6 11.33zM288 .0032C301.3 .0032 312 10.75 312 24V72C312 85.26 301.3 96 288 96C274.7 96 264 85.26 264 72V24C264 10.75 274.7 .0032 288 .0032V.0032z"/></svg>

<svg xmlns="http://www.w3.org/2000/svg" viewBox="0 0 576 512"><!--! Font Awesome Pro 6.4.0 by @fontawesome - https://fontawesome.com License - https://fontawesome.com/license (Commercial License) Copyright 2023 Fonticons, Inc. --><defs><style>.fa-secondary{opacity:.4}</style></defs><path class="fa-primary" d="M0 480c0-17.7 14.3-32 32-32H544c17.7 0 32 14.3 32 32s-14.3 32-32 32H32c-17.7 0-32-14.3-32-32z"/><path class="fa-secondary" d="M499.6 11.3c6.7-10.7 20.5-14.5 31.7-8.5s15.8 19.5 10.6 31L404.8 338.6c2.2 2.3 4.3 4.7 6.3 7.1l97.2-54.7c10.5-5.9 23.6-3.1 30.9 6.4s6.3 23-2.2 31.5l-91.4 91.4c1.6 9 2.4 18.2 2.4 27.7H384c0-53-43-96-96-96s-96 43-96 96H128c0-8.1 .6-16 1.8-23.8L42.3 363.7c-9.7-6.8-13.1-19.6-7.9-30.3s17.4-15.9 28.7-12.4l97.2 30.4c3-3.9 6.1-7.6 9.4-11.3L107.4 236.4c-6.1-10.1-3.9-23.1 5.1-30.7s22.2-7.5 31.1 .1L246 293.6c1.5-.4 3-.8 4.5-1.1l13.6-142.7c1.2-12.3 11.5-21.7 23.9-21.7s22.7 9.4 23.9 21.7l13.5 141.9L499.6 11.3zM288 0c13.3 0 24 10.7 24 24V72c0 13.3-10.7 24-24 24s-24-10.7-24-24V24c0-13.3 10.7-24 24-24z"/></svg>
